X:1
T:BWV 974 - Adagio 
T:Bach / Marcello
%%score { ( 1 3 5 ) | ( 2 4 6 ) }
L:1/8
M:3/4
K:F
V:1 treble nm="Piano"
V:3 treble 
V:5 treble 
V:2 bass 
V:4 bass 
V:6 bass 
V:1
 DDDDDD | EEEEEE | [EG][EG][EG][EG][EG][EG] | (df) (fa) (ac'/b/) | Mb4 z2 | %5
 (ce/d/) (eg/f/) (gb/a/) | Ma4 z2 | (B/c/4A/4B/d/4^c/4) (d/e/4c/4d/f/4e/4 f/g/4e/4f/a/4g/4) | %8
 Mg4 z2 | (A/4^G/4A/4=B/4A/4B/4^c/4B/4) (c/4d/4c/4d/4e/4d/4e/4f/4 e/4f/4=g/4f/4g/4f/4g/4e/4) | %10
 Mf2 z/ f/_b/a/ (b/g/-g/4f/4e/4f/4) | Pe2 z/ e/f/a/4g/4 (a/4f/g/<Pe/f/4) | %12
{e} d2 z/4 (d/4e/4f/4g/4f/4e/4f/4) (g/f/4e/4f/g/) | P^c4 z2 | (^fa) (af) (c/a/f/c/) | (c2 PB2) z2 | %16
 (^g/=b/g/a/) (b/g/e/b/) (g/e/d/b/) | (ec) (=fe) (e(Mf) | f)=g/f/ ef/d/ Me2- | %19
 e/(g/f/e/) (d/^c/e/d/) Md2 | (d/=c/=B/c/ d/e/f/e/) (dc- | c/_B/c/A/ B/c/d/e/ f/g/a/b/) | %22
 (Pe2- e/4d/4c/4d/4e/4d/4f/4e/4) (Mf2- | f/>g/f/4e/4f/4g/4) (g2- g/f/g/4e/4f/4d/8_e/8) | %24
 M_e2- e(g b/g/f/e/) | M_e2- e/(g/a/b/ c'/a/f/e/) | %26
 P_e2 d3/2=e/4^f/4 (g/4a/4b/4a/4g/4=f/4e/4g/8f/8) | (f Mg2) a (g/fg/4e/4) | %28
 (Mf/>g/f/4e/4f/4g/4) (d-d/4^c/4=B/4c/4) (Pc/>d/c/d/4_B/4) |{A} G6- | %30
 (G/F/E/F/ G/A/B/A/) (g/e/f/^c/) | (Pd/>e/d/4^c/4d/4e/4) Pe2- (e/d/=B/4d/4f/4a/4) | %32
 (P^g-g/4a/4g/4^f/4) (e/4f/4g/4f/4g/4a/4g/4f/8g/8) (a/4_b/4a/4=g/4=f/g/4e/4) | %33
 (f/4g/4a/4g/4f/4e/4f/4d/4) (d/>^c/d/4=B/4c/) Pc>d | d4 z2 | [DE][DE][DE][DE][=CE][CE] | %36
 [D^F][DF][DF][DF][DF][DF] | [DG][DG][DG][DG][DG][DG] | G3 A=FE | FG PE4 | D6 |] %41
V:2
 z6 | DDDDDD | [A,^C][A,C][A,C][A,C][A,C][A,C] | D [DF][DF][DF][DF][DF] | %4
 [DF][DF][DF][DF][DF][DF] | EEEEEE | [CE][CE][CE][CE][CE][CE] | DDDDDD | %8
 [B,D][B,D][B,D][B,D][B,D][B,D] | ^CCCCCC | DD[K:treble] [F_B][FB] [FB][FB] | %11
 [GB][GB] [EA][EA][EA][EA] | [FA][FA] [DG][DG][DG][DG] | [EG][EG][K:bass] A,A,A,A, | %14
 A,D[K:treble] [^FA][FA][FA][FA] | [DG][DG][DG][DG][DG][DG] | [^G=B][GB][GB][GB][GB][GB] | %17
 [EA][EA] cccc | _BBBBBB | AAAAAA | GGGGGG | FFFF[FB][FB] | [GB][GB][GB][GB][FA][FA] | GF- F2 E2 | %24
 [B,G][B,G][B,G][B,G][B,G][B,G] | [CF][CF][CF][CF][CF][CF] | FFFFDG | CCCCDD | DE EGFE | %29
 (D/^C/)(E/D/) (F/E/)(G/F/) E/D/^C/D/ | P^CCCC[K:bass] [A,^C]D | [B,D][B,D] ^CGFE | %32
 [=B,D][B,D][B,D][B,D] ^CC | D_B, A,2 A,2 | D,D,D,D,D,D, | E,E,E,E,E,E, | D,D,D,D,D,D, | %37
 D,D,E,E,E,E, | A,2 z2 D,2- | D,/(^C,/D,/E,/) z/ D,/E,/F,/ E,^F,/G,/ | ^F,6 |] %41
V:3
 x6 | x6 | x6 | F x5 | x6 | x6 | x6 | x6 | x6 | x6 | x6 | x6 | x6 | z2 [EGA][EGA][EGA][EGA] | %14
 [A=c] z x4 | x6 | x6 | x6 | x6 | x6 | x6 | x6 | x6 | x6 | x6 | x6 | x6 | x6 | x6 | x6 | x6 | x6 | %32
 x6 | x6 | z [DF][DF][DF][DF][DF] | A,A,A,A,A,A, | [A,C][A,C][A,C][A,C][A,C][A,C] | %37
 [G,C][G,B,]B,B,B,B, | ^CCCCDC | D4 ^C2 | A,6 |] %41
V:4
 x6 | x6 | x6 | D, z z2 z2 | G,G,G,G,G,G, | CCCCCC | F,F,F,F,F,F, | B,B,B,B,B,B, | E,E,E,E,E,E, | %9
 A,A,A,A,A,A, | D,D,[K:treble] DD DD | DD =CCCC | CC B,B,B,B, | A,A,[K:bass] A,,A,,A,,A,, | %14
 D,2[K:treble] DDDD | G,G,G,G,G,G, | EEEEEE | A,A, AAAA | =GGGGGG | FFFFFF | EEEEEE | DDDDDD | %22
 CCCCDD | [B,D]2 C4 | G,G,G,G,G,G, | A,A,A,A,A,A, | B,B,B,B,B,B, | A,A,A,A,B,B, | %28
 [G,B,][G,B,] A,A,A,A, | B,B,B,B,B,B, | A,A,A,A,[K:bass] F,F, | G,G, A,A,A,A, | E,E,E,E, A,A, | %33
 D,G, A,G,A,A,, | z D,,D,,D,,D,,D,, | A,,A,,A,,A,,A,,A,, | D,,D,,D,,D,,D,,D,, | %37
 G,,G,,G,,G,,G,,G,, | E,E,E,E, x2 | G,,G,,A,,A,,A,,A,, | D,,6 |] %41
V:5
 x6 | x6 | x6 | x6 | x6 | x6 | x6 | x6 | x6 | x6 | x6 | x6 | x6 | x6 | x6 | x6 | x6 | x6 | x6 | %19
 x6 | x6 | x6 | x6 | x6 | x6 | x6 | x6 | x6 | x6 | x6 | x6 | x6 | x6 | x6 | z2 z A,A,A, | x6 | x6 | %37
 x6 | x6 | x6 | x6 |] %41
V:6
 x6 | x6 | x6 | x6 | x6 | x6 | x6 | x6 | x6 | x6 | x2[K:treble] x4 | x6 | x6 | x2[K:bass] x4 | %14
 x2[K:treble] x4 | x6 | x6 | x6 | x6 | x6 | x6 | x6 | x6 | x6 | x6 | x6 | x6 | x6 | x6 | x6 | %30
 x7/2[K:bass] x5/2 | x6 | x6 | x6 | x6 | x6 | x6 | x6 | A,,A,,A,,A,,B,,B,, | x6 | x6 |] %41

